packages/ui-icons/svg/Line/chat.svg

<svg viewBox="0 0 1920 1920" version="1.1" xmlns="http://www.w3.org/2000/svg">
    <path d="M677.680941,-0.0338823529 L677.680941,338.902588 L790.622118,338.902588 L790.622118,113.020235 L1807.09271,113.020235 L1807.09271,903.495529 L1581.09741,903.495529 L1581.09741,1163.26024 L1321.44565,903.495529 L1242.27388,903.495529 L1242.27388,451.843765 L677.680941,451.843765 L0.0338823529,451.843765 L0.0338823529,1468.31435 L338.744471,1468.31435 L338.744471,1887.21318 L756.739765,1468.31435 L1242.27388,1468.31435 L1242.27388,1016.43671 L1275.02682,1016.43671 L1694.15153,1435.56141 L1694.15153,1016.43671 L1920.03388,1016.43671 L1920.03388,-0.0338823529 L677.680941,-0.0338823529 Z M338.823529,903.529412 L903.529412,903.529412 L903.529412,790.588235 L338.823529,790.588235 L338.823529,903.529412 Z M338.823529,1129.41176 L677.76,1129.41176 L677.76,1016.35765 L338.823529,1016.35765 L338.823529,1129.41176 Z M112.975059,564.672 L1129.44565,564.672 L1129.44565,1355.37318 L710.433882,1355.37318 L451.685647,1615.02494 L451.685647,1355.37318 L112.975059,1355.37318 L112.975059,564.672 Z" stroke="none" stroke-width="1" fill-rule="evenodd"/>
</svg>

<svg viewBox="0 0 1920 1920" version="1.1" xmlns="http://www.w3.org/2000/svg">
    <path d="M677.68-.034v338.937h112.942V113.02h1016.47v790.476h-225.995v259.764l-259.651-259.764h-79.172V451.844H.034v1016.47h338.71v418.9l417.996-418.9h485.534v-451.877h32.753l419.125 419.124v-419.124h225.882V-.033H677.68zM338.825 903.53h564.705V790.59H338.824v112.94zm0 225.883H677.76v-113.054H338.824v113.054zm-225.849-564.74h1016.47v790.701H710.435l-258.748 259.652v-259.652h-338.71V564.672z" stroke="none" stroke-width="1" fill-rule="evenodd"/>
</svg>
